packages/assets/static/images/icons/bold/credit--bold.svg

<svg width="24" height="24" viewBox="0 0 24 24" xmlns="http://www.w3.org/2000/svg">
<path d="M21.5 4.125H3.5C3.00272 4.125 2.52581 4.32254 2.17417 4.67417C1.82254 5.02581 1.625 5.50272 1.625 6V18C1.625 18.4973 1.82254 18.9742 2.17417 19.3258C2.52581 19.6775 3.00272 19.875 3.5 19.875H21.5C21.9973 19.875 22.4742 19.6775 22.8258 19.3258C23.1775 18.9742 23.375 18.4973 23.375 18V6C23.375 5.50272 23.1775 5.02581 22.8258 4.67417C22.4742 4.32254 21.9973 4.125 21.5 4.125ZM21.125 6.375V8.25H3.875V6.375H21.125ZM3.875 17.625V10.5H21.125V17.625H3.875ZM20 15.375C20 15.6734 19.8815 15.9595 19.6705 16.1705C19.4595 16.3815 19.1734 16.5 18.875 16.5H15.875C15.5766 16.5 15.2905 16.3815 15.0795 16.1705C14.8685 15.9595 14.75 15.6734 14.75 15.375C14.75 15.0766 14.8685 14.7905 15.0795 14.5795C15.2905 14.3685 15.5766 14.25 15.875 14.25H18.875C19.1734 14.25 19.4595 14.3685 19.6705 14.5795C19.8815 14.7905 20 15.0766 20 15.375ZM13.625 15.375C13.625 15.6734 13.5065 15.9595 13.2955 16.1705C13.0845 16.3815 12.7984 16.5 12.5 16.5H11.375C11.0766 16.5 10.7905 16.3815 10.5795 16.1705C10.3685 15.9595 10.25 15.6734 10.25 15.375C10.25 15.0766 10.3685 14.7905 10.5795 14.5795C10.7905 14.3685 11.0766 14.25 11.375 14.25H12.5C12.7984 14.25 13.0845 14.3685 13.2955 14.5795C13.5065 14.7905 13.625 15.0766 13.625 15.375Z"/>
</svg>

<svg viewBox="0 0 24 24" xmlns="http://www.w3.org/2000/svg" aria-hidden="true" fill="currentColor"><path d="M21.5 4.125h-18A1.875 1.875 0 0 0 1.625 6v12A1.875 1.875 0 0 0 3.5 19.875h18A1.875 1.875 0 0 0 23.375 18V6A1.875 1.875 0 0 0 21.5 4.125m-.375 2.25V8.25H3.875V6.375zm-17.25 11.25V10.5h17.25v7.125zM20 15.375a1.125 1.125 0 0 1-1.125 1.125h-3a1.125 1.125 0 1 1 0-2.25h3A1.125 1.125 0 0 1 20 15.375m-6.375 0A1.125 1.125 0 0 1 12.5 16.5h-1.125a1.125 1.125 0 1 1 0-2.25H12.5a1.125 1.125 0 0 1 1.125 1.125"/></svg>
